icons/mobile/24/svg/eye-slash-24.svg

<svg width="24" height="24" viewBox="0 0 24 24" fill="none" xmlns="http://www.w3.org/2000/svg">
<path fill-rule="evenodd" clip-rule="evenodd" d="M1.25579 2.25579C1.5975 1.91408 2.15237 1.91408 2.49407 2.25579L20.7441 20.5058C21.0858 20.8475 21.0858 21.4024 20.7441 21.7441C20.4024 22.0858 19.8475 22.0858 19.5058 21.7441L15.9755 18.2138C14.7299 18.7133 13.3848 18.9824 11.998 18.9824C7.96599 18.9824 4.28073 16.7201 2.38372 13.0781C1.86673 12.0901 1.86674 10.9098 2.38372 9.92083C2.98344 8.76957 3.76741 7.76374 4.68255 6.92083L1.25579 3.49407C0.914085 3.15237 0.914085 2.5975 1.25579 2.25579ZM5.91302 8.1513C5.1255 8.87322 4.45336 9.74134 3.93743 10.7314C3.68655 11.2133 3.68654 11.7876 3.93743 12.2685C5.53343 15.3315 8.62194 17.2333 11.9999 17.2333C12.8951 17.2333 13.7662 17.0919 14.5956 16.8339L12.6894 14.9277C12.4664 14.9738 12.2359 14.9999 11.999 14.9999C10.069 14.9999 8.49896 13.4299 8.49896 11.4999C8.49896 11.2627 8.52403 11.0317 8.57025 10.8085L5.91302 8.1513Z" fill="black"/>
<path d="M11.9999 4.01751C16.0319 4.01751 19.7172 6.27981 21.6142 9.92181L21.6132 9.92279C22.1302 10.9108 22.1302 12.091 21.6132 13.08C20.9143 14.4229 19.9683 15.574 18.8544 16.498L17.6083 15.2519C18.6022 14.4579 19.4455 13.4534 20.0624 12.2695C20.313 11.7878 20.3131 11.2131 20.0624 10.7324C18.4674 7.66936 15.3779 5.76751 11.9999 5.76751C10.8679 5.76751 9.77583 5.99937 8.75384 6.39837L7.42083 5.06536C8.83183 4.39637 10.3849 4.01752 11.9999 4.01751Z" fill="black"/>
<path d="M11.9999 7.99993C13.9299 7.99995 15.4999 9.56994 15.4999 11.4999C15.4999 11.9849 15.4006 12.4461 15.2216 12.8661L13.7382 11.3818C13.6782 10.5129 12.987 9.82073 12.1181 9.76165L10.6337 8.27825C11.0537 8.09925 11.5159 7.99993 11.9999 7.99993Z" fill="black"/>
</svg>

<!-- This Source Code Form is subject to the terms of the Mozilla Public
   - License, v. 2.0. If a copy of the MPL was not distributed with this
   - file, You can obtain one at http://mozilla.org/MPL/2.0/. -->
<svg xmlns="http://www.w3.org/2000/svg" width="24" height="24" fill="none" viewBox="0 0 24 24">
    <path fill="#000" fill-rule="evenodd" d="M1.256 2.256a.876.876 0 0 1 1.238 0l18.25 18.25a.876.876 0 0 1-1.238 1.238l-3.53-3.53c-1.246.5-2.591.768-3.978.768-4.032 0-7.717-2.262-9.614-5.904a3.4 3.4 0 0 1 0-3.157 11 11 0 0 1 2.299-3L1.256 3.494a.876.876 0 0 1 0-1.238M5.913 8.15a9.4 9.4 0 0 0-1.976 2.58 1.66 1.66 0 0 0 0 1.537C5.533 15.33 8.622 17.232 12 17.232c.895 0 1.766-.141 2.596-.4l-1.907-1.905A3.4 3.4 0 0 1 12 15c-1.93 0-3.5-1.57-3.5-3.5q.001-.356.071-.691z" clip-rule="evenodd" />
    <path fill="#000" d="M12 4.018c4.032 0 7.717 2.262 9.614 5.904a3.4 3.4 0 0 1 0 3.158 11.1 11.1 0 0 1-2.76 3.418l-1.246-1.246a9.3 9.3 0 0 0 2.454-2.982 1.67 1.67 0 0 0 0-1.538C18.467 7.67 15.378 5.768 12 5.768a8.9 8.9 0 0 0-3.246.63L7.42 5.065A10.7 10.7 0 0 1 12 4.018" />
    <path fill="#000" d="M12 8a3.504 3.504 0 0 1 3.222 4.866l-1.484-1.484a1.74 1.74 0 0 0-1.62-1.62l-1.484-1.484C11.054 8.1 11.516 8 12 8" />
</svg>
